svg/google-plus.svg

<svg xmlns="http://www.w3.org/2000/svg" viewBox="0 0 64 50" enable-background="new 0 0 64 50"><style type="text/css">.st0{fill:#343434;}</style><title>google-plus</title><desc>Created with Sketch.</desc><path class="st0" d="M26.7 30h14.2c-2.1 6.8-8.4 11.7-15.9 11.7-9.2 0-16.7-7.5-16.7-16.7s7.5-16.7 16.7-16.7c4.6 0 8.8 1.9 11.8 4.9l5.6-6.1c-4.4-4.4-10.6-7.1-17.4-7.1-13.8 0-25 11.2-25 25s11.2 25 25 25c12.1 0 22.7-8.6 25-20v-7.8h-23.3v7.8zM59.4 22.5v-4.5h-3.9v4.5h-4.5v3.9h4.5v4.6h3.9v-4.6h4.6v-3.9z"/></svg>

<svg xmlns="http://www.w3.org/2000/svg" viewBox="0 0 64 50"><path d="M26.7 30h14.2c-2.1 6.8-8.4 11.7-15.9 11.7-9.2 0-16.7-7.5-16.7-16.7S15.8 8.3 25 8.3c4.6 0 8.8 1.9 11.8 4.9l5.6-6.1C38 2.7 31.8 0 25 0 11.2 0 0 11.2 0 25s11.2 25 25 25c12.1 0 22.7-8.6 25-20v-7.8H26.7V30zm32.7-7.5V18h-3.9v4.5H51v3.9h4.5V31h3.9v-4.6H64v-3.9z" fill="#343434"/></svg>
